static/img/kroki/c19f67d3d52181a68c7afb99ca8ace75.svg

<?xml version="1.0" encoding="us-ascii" standalone="no"?><svg xmlns="http://www.w3.org/2000/svg" xmlns:xlink="http://www.w3.org/1999/xlink" contentStyleType="text/css" height="352px" preserveAspectRatio="none" style="width:594px;height:352px;" version="1.1" viewBox="0 0 594 352" width="594px" zoomAndPan="magnify"><defs/><g><!--class aws_ecs_capacity_provider--><g id="elem_aws_ecs_capacity_provider"><rect codeLine="22" fill="#3D176E" height="39.7891" id="aws_ecs_capacity_provider" rx="2.5" ry="2.5" style="stroke:#000D19;stroke-width:0.5;" width="265" x="10" y="306.37"/><ellipse cx="25" cy="326.2645" fill="#ADD1B2" rx="11" ry="11" style="stroke:#181818;stroke-width:1.0;"/><path d="M27.9688,331.9052 Q27.3906,332.202 26.75,332.3427 Q26.1094,332.4989 25.4063,332.4989 Q22.9063,332.4989 21.5781,330.8583 Q20.2656,329.202 20.2656,326.077 Q20.2656,322.952 21.5781,321.2958 Q22.9063,319.6395 25.4063,319.6395 Q26.1094,319.6395 26.75,319.7958 Q27.4063,319.952 27.9688,320.2489 L27.9688,322.9677 Q27.3438,322.3895 26.75,322.1239 Q26.1563,321.8427 25.5313,321.8427 Q24.1875,321.8427 23.5,322.9208 Q22.8125,323.9833 22.8125,326.077 Q22.8125,328.1708 23.5,329.2489 Q24.1875,330.3114 25.5313,330.3114 Q26.1563,330.3114 26.75,330.0458 Q27.3438,329.7645 27.9688,329.1864 L27.9688,331.9052 Z " fill="#000000"/><text fill="#D9B8FF" font-family="Helvetica" font-size="17" lengthAdjust="spacing" textLength="223" x="44" y="332.1498">aws_ecs_capacity_provider</text></g><!--class aws_ecs_cluster--><g id="elem_aws_ecs_cluster"><rect codeLine="24" fill="#3D176E" height="39.7891" id="aws_ecs_cluster" rx="2.5" ry="2.5" style="stroke:#000D19;stroke-width:0.5;" width="175" x="330" y="106.79"/><ellipse cx="345" cy="126.6845" fill="#ADD1B2" rx="11" ry="11" style="stroke:#181818;stroke-width:1.0;"/><path d="M347.9688,132.3252 Q347.3906,132.622 346.75,132.7627 Q346.1094,132.9189 345.4063,132.9189 Q342.9063,132.9189 341.5781,131.2783 Q340.2656,129.622 340.2656,126.497 Q340.2656,123.372 341.5781,121.7158 Q342.9063,120.0595 345.4063,120.0595 Q346.1094,120.0595 346.75,120.2158 Q347.4063,120.372 347.9688,120.6689 L347.9688,123.3877 Q347.3438,122.8095 346.75,122.5439 Q346.1563,122.2627 345.5313,122.2627 Q344.1875,122.2627 343.5,123.3408 Q342.8125,124.4033 342.8125,126.497 Q342.8125,128.5908 343.5,129.6689 Q344.1875,130.7314 345.5313,130.7314 Q346.1563,130.7314 346.75,130.4658 Q347.3438,130.1845 347.9688,129.6064 L347.9688,132.3252 Z " fill="#000000"/><text fill="#D9B8FF" font-family="Helvetica" font-size="17" lengthAdjust="spacing" textLength="133" x="364" y="132.5698">aws_ecs_cluster</text></g><!--class aws_ecs_container_instance--><g id="elem_aws_ecs_container_instance"><rect codeLine="26" fill="#3D176E" height="39.7891" id="aws_ecs_container_instance" rx="2.5" ry="2.5" style="stroke:#000D19;stroke-width:0.5;" width="277" x="310" y="306.37"/><ellipse cx="325" cy="326.2645" fill="#ADD1B2" rx="11" ry="11" style="stroke:#181818;stroke-width:1.0;"/><path d="M327.9688,331.9052 Q327.3906,332.202 326.75,332.3427 Q326.1094,332.4989 325.4063,332.4989 Q322.9063,332.4989 321.5781,330.8583 Q320.2656,329.202 320.2656,326.077 Q320.2656,322.952 321.5781,321.2958 Q322.9063,319.6395 325.4063,319.6395 Q326.1094,319.6395 326.75,319.7958 Q327.4063,319.952 327.9688,320.2489 L327.9688,322.9677 Q327.3438,322.3895 326.75,322.1239 Q326.1563,321.8427 325.5313,321.8427 Q324.1875,321.8427 323.5,322.9208 Q322.8125,323.9833 322.8125,326.077 Q322.8125,328.1708 323.5,329.2489 Q324.1875,330.3114 325.5313,330.3114 Q326.1563,330.3114 326.75,330.0458 Q327.3438,329.7645 327.9688,329.1864 L327.9688,331.9052 Z " fill="#000000"/><text fill="#D9B8FF" font-family="Helvetica" font-size="17" lengthAdjust="spacing" textLength="235" x="344" y="332.1498">aws_ecs_container_instance</text></g><!--class aws_ecs_task--><g id="elem_aws_ecs_task"><rect codeLine="28" fill="#3D176E" height="39.7891" id="aws_ecs_task" rx="2.5" ry="2.5" style="stroke:#000D19;stroke-width:0.5;" width="154" x="96.5" y="206.58"/><ellipse cx="111.5" cy="226.4745" fill="#ADD1B2" rx="11" ry="11" style="stroke:#181818;stroke-width:1.0;"/><path d="M114.4688,232.1152 Q113.8906,232.412 113.25,232.5527 Q112.6094,232.7089 111.9063,232.7089 Q109.4063,232.7089 108.0781,231.0683 Q106.7656,229.412 106.7656,226.287 Q106.7656,223.162 108.0781,221.5058 Q109.4063,219.8495 111.9063,219.8495 Q112.6094,219.8495 113.25,220.0058 Q113.9063,220.162 114.4688,220.4589 L114.4688,223.1777 Q113.8438,222.5995 113.25,222.3339 Q112.6563,222.0527 112.0313,222.0527 Q110.6875,222.0527 110,223.1308 Q109.3125,224.1933 109.3125,226.287 Q109.3125,228.3808 110,229.4589 Q110.6875,230.5214 112.0313,230.5214 Q112.6563,230.5214 113.25,230.2558 Q113.8438,229.9745 114.4688,229.3964 L114.4688,232.1152 Z " fill="#000000"/><text fill="#D9B8FF" font-family="Helvetica" font-size="17" lengthAdjust="spacing" textLength="112" x="130.5" y="232.3598">aws_ecs_task</text></g><!--class aws_ecs_task_definition--><g id="elem_aws_ecs_task_definition"><rect codeLine="30" fill="#3D176E" height="39.7891" id="aws_ecs_task_definition" rx="2.5" ry="2.5" style="stroke:#000D19;stroke-width:0.5;" width="243" x="52" y="106.79"/><ellipse cx="67" cy="126.6845" fill="#ADD1B2" rx="11" ry="11" style="stroke:#181818;stroke-width:1.0;"/><path d="M69.9688,132.3252 Q69.3906,132.622 68.75,132.7627 Q68.1094,132.9189 67.4063,132.9189 Q64.9063,132.9189 63.5781,131.2783 Q62.2656,129.622 62.2656,126.497 Q62.2656,123.372 63.5781,121.7158 Q64.9063,120.0595 67.4063,120.0595 Q68.1094,120.0595 68.75,120.2158 Q69.4063,120.372 69.9688,120.6689 L69.9688,123.3877 Q69.3438,122.8095 68.75,122.5439 Q68.1563,122.2627 67.5313,122.2627 Q66.1875,122.2627 65.5,123.3408 Q64.8125,124.4033 64.8125,126.497 Q64.8125,128.5908 65.5,129.6689 Q66.1875,130.7314 67.5313,130.7314 Q68.1563,130.7314 68.75,130.4658 Q69.3438,130.1845 69.9688,129.6064 L69.9688,132.3252 Z " fill="#000000"/><text fill="#D9B8FF" font-family="Helvetica" font-size="17" lengthAdjust="spacing" textLength="201" x="86" y="132.5698">aws_ecs_task_definition</text></g><!--class aws_iam_role--><g id="elem_aws_iam_role"><rect codeLine="32" fill="#3D176E" height="39.7891" id="aws_iam_role" rx="2.5" ry="2.5" style="stroke:#000D19;stroke-width:0.5;" width="157" x="7" y="7"/><ellipse cx="22" cy="26.8945" fill="#ADD1B2" rx="11" ry="11" style="stroke:#181818;stroke-width:1.0;"/><path d="M24.9688,32.5352 Q24.3906,32.832 23.75,32.9727 Q23.1094,33.1289 22.4063,33.1289 Q19.9063,33.1289 18.5781,31.4883 Q17.2656,29.832 17.2656,26.707 Q17.2656,23.582 18.5781,21.9258 Q19.9063,20.2695 22.4063,20.2695 Q23.1094,20.2695 23.75,20.4258 Q24.4063,20.582 24.9688,20.8789 L24.9688,23.5977 Q24.3438,23.0195 23.75,22.7539 Q23.1563,22.4727 22.5313,22.4727 Q21.1875,22.4727 20.5,23.5508 Q19.8125,24.6133 19.8125,26.707 Q19.8125,28.8008 20.5,29.8789 Q21.1875,30.9414 22.5313,30.9414 Q23.1563,30.9414 23.75,30.6758 Q24.3438,30.3945 24.9688,29.8164 L24.9688,32.5352 Z " fill="#000000"/><text fill="#D9B8FF" font-family="Helvetica" font-size="17" lengthAdjust="spacing" textLength="115" x="41" y="32.7798">aws_iam_role</text></g><!--link aws_ecs_cluster to aws_ecs_capacity_provider--><g id="link_aws_ecs_cluster_aws_ecs_capacity_provider"><path codeLine="34" d="M394.9,147.02 C366.23,171.23 314.93,213.5 268.5,246.37 C237.85,268.07 206.4925,287.5157 180.6825,302.9157 " fill="none" id="aws_ecs_cluster-to-aws_ecs_capacity_provider" style="stroke:#1A83AF;stroke-width:2.0;"/><polygon fill="#1A83AF" points="175.53,305.99,185.3083,304.8135,179.8238,303.428,181.2092,297.9435,175.53,305.99" style="stroke:#1A83AF;stroke-width:2.0;"/></g><!--link aws_ecs_cluster to aws_ecs_container_instance--><g id="link_aws_ecs_cluster_aws_ecs_container_instance"><path codeLine="35" d="M420.53,146.99 C426.46,184.76 438.5893,262.1226 444.5293,299.9526 " fill="none" id="aws_ecs_cluster-to-aws_ecs_container_instance" style="stroke:#1A83AF;stroke-width:2.0;"/><polygon fill="#1A83AF" points="445.46,305.88,448.0155,296.3685,444.6844,300.9405,440.1124,297.6094,445.46,305.88" style="stroke:#1A83AF;stroke-width:2.0;"/></g><!--link aws_ecs_cluster to aws_ecs_task--><g id="link_aws_ecs_cluster_aws_ecs_task"><path codeLine="36" d="M369.29,147.01 C326.52,164.15 269.9189,186.8267 227.1789,203.9667 " fill="none" id="aws_ecs_cluster-to-aws_ecs_task" style="stroke:#1A83AF;stroke-width:2.0;"/><polygon fill="#1A83AF" points="221.61,206.2,231.4522,206.5627,226.2507,204.3389,228.4745,199.1375,221.61,206.2" style="stroke:#1A83AF;stroke-width:2.0;"/></g><!--link aws_ecs_task to aws_ecs_capacity_provider--><g id="link_aws_ecs_task_aws_ecs_capacity_provider"><path codeLine="37" d="M167.38,246.8 C161.94,263.94 155.8521,283.1302 150.4221,300.2702 " fill="none" id="aws_ecs_task-to-aws_ecs_capacity_provider" style="stroke:#1A83AF;stroke-width:2.0;"/><polygon fill="#1A83AF" points="148.61,305.99,155.1413,298.6183,150.12,301.2235,147.5149,296.2022,148.61,305.99" style="stroke:#1A83AF;stroke-width:2.0;"/></g><!--link aws_ecs_task to aws_ecs_container_instance--><g id="link_aws_ecs_task_aws_ecs_container_instance"><path codeLine="38" d="M227.83,246.8 C276.04,263.94 340.4471,286.839 388.6271,303.979 " fill="none" id="aws_ecs_task-to-aws_ecs_container_instance" style="stroke:#1A83AF;stroke-width:2.0;"/><polygon fill="#1A83AF" points="394.28,305.99,387.1413,299.2048,389.5692,304.3141,384.4599,306.7421,394.28,305.99" style="stroke:#1A83AF;stroke-width:2.0;"/></g><!--link aws_ecs_task_definition to aws_ecs_task--><g id="link_aws_ecs_task_definition_aws_ecs_task"><path codeLine="39" d="M173.5,147.01 C173.5,164.15 173.5,183.06 173.5,200.2 " fill="none" id="aws_ecs_task_definition-to-aws_ecs_task" style="stroke:#1A83AF;stroke-width:2.0;"/><polygon fill="#1A83AF" points="173.5,206.2,177.5,197.2,173.5,201.2,169.5,197.2,173.5,206.2" style="stroke:#1A83AF;stroke-width:2.0;"/></g><!--link aws_iam_role to aws_ecs_task--><g id="link_aws_iam_role_aws_ecs_task"><path codeLine="40" d="M66.36,47.08 C44.78,71.13 15.09,113.25 34.5,146.58 C50.98,174.88 76.2883,191.479 104.7183,203.709 " fill="none" id="aws_iam_role-to-aws_ecs_task" style="stroke:#1A83AF;stroke-width:2.0;"/><polygon fill="#1A83AF" points="110.23,206.08,103.5432,198.8491,105.637,204.1042,100.3818,206.1979,110.23,206.08" style="stroke:#1A83AF;stroke-width:2.0;"/></g><!--link aws_iam_role to aws_ecs_task_definition--><g id="link_aws_iam_role_aws_ecs_task_definition"><path codeLine="41" d="M102.89,47.22 C118.31,64.36 136.7158,84.8206 152.1358,101.9506 " fill="none" id="aws_iam_role-to-aws_ecs_task_definition" style="stroke:#1A83AF;stroke-width:2.0;"/><polygon fill="#1A83AF" points="156.15,106.41,153.1016,97.0448,152.8048,102.6939,147.1558,102.3971,156.15,106.41" style="stroke:#1A83AF;stroke-width:2.0;"/></g><!--SRC=[fP9HQy8m4CVV_HG1dmKxsTINGHLaUv4nzpP6EPEBXhP9kKJ5ZNttjNEJcDhgs6lkTtU__v6r4iWmBzoUvPWlaMp7faeNG92pcCZifYOpnBfIWXmCm-BCQ7SHc4EEx06pBJh58IHUregd6grbDrvf0ZnTaTbeSHZl2BGjIwYTHqqpi3PsZjHouz2J4UFbICgG38Ts1o8Qtc4DCoIGVf1-lo-YSOXSNDMQ-qWir3koo3_Qt3YiQTPMV5EjbXNXITQ2_jOR7Pz02ALNxDPxUpuuaKOwUL-iGPXTHKl8hB_6EYGqRb_Wj9OAnoCXXsVXnoQOLvTZiBC9SfjmA80hjqyACjlo8nFxw7o6JBQfvfwhbF51bLaIfQq3pV4CvC2c3S-9GAcqSiheW52G9sIomxnGfFVQZUBH89wzzUwRarpPLejmNL-btpc9-4UhbfvcfV1exMh78_uNyrP-0G00]--></g></svg>

<svg xmlns="http://www.w3.org/2000/svg" width="594" height="352" viewBox="0 0 594 352"><rect width="265" height="39.789" x="10" y="306.37" fill="#3D176E" rx="2.5" ry="2.5" style="stroke:#000d19;stroke-width:.5"/><circle cx="25" cy="326.264" r="11" fill="#ADD1B2" style="stroke:#181818;stroke-width:1"/><path d="M27.969 331.905q-.578.297-1.219.438-.64.156-1.344.156-2.5 0-3.828-1.64-1.312-1.657-1.312-4.782t1.312-4.781q1.328-1.656 3.828-1.656.703 0 1.344.156.656.156 1.219.453v2.719q-.625-.579-1.219-.844-.594-.281-1.219-.281-1.343 0-2.031 1.078-.687 1.062-.687 3.156t.687 3.172q.688 1.062 2.031 1.062.625 0 1.219-.265.594-.281 1.219-.86z"/><text x="44" y="332.15" fill="#D9B8FF" font-family="Helvetica" font-size="17" textLength="223">aws_ecs_capacity_provider</text><rect width="175" height="39.789" x="330" y="106.79" fill="#3D176E" rx="2.5" ry="2.5" style="stroke:#000d19;stroke-width:.5"/><circle cx="345" cy="126.684" r="11" fill="#ADD1B2" style="stroke:#181818;stroke-width:1"/><path d="M347.969 132.325q-.578.297-1.219.438-.64.156-1.344.156-2.5 0-3.828-1.64-1.312-1.657-1.312-4.782t1.312-4.781q1.328-1.656 3.828-1.656.703 0 1.344.156.656.156 1.219.453v2.719q-.625-.579-1.219-.844-.594-.281-1.219-.281-1.344 0-2.031 1.078-.687 1.062-.687 3.156t.687 3.172q.688 1.062 2.031 1.062.625 0 1.219-.265.594-.281 1.219-.86z"/><text x="364" y="132.57" fill="#D9B8FF" font-family="Helvetica" font-size="17" textLength="133">aws_ecs_cluster</text><rect width="277" height="39.789" x="310" y="306.37" fill="#3D176E" rx="2.5" ry="2.5" style="stroke:#000d19;stroke-width:.5"/><circle cx="325" cy="326.264" r="11" fill="#ADD1B2" style="stroke:#181818;stroke-width:1"/><path d="M327.969 331.905q-.578.297-1.219.438-.64.156-1.344.156-2.5 0-3.828-1.64-1.312-1.657-1.312-4.782t1.312-4.781q1.328-1.656 3.828-1.656.703 0 1.344.156.656.156 1.219.453v2.719q-.625-.579-1.219-.844-.594-.281-1.219-.281-1.344 0-2.031 1.078-.687 1.062-.687 3.156t.687 3.172q.688 1.062 2.031 1.062.625 0 1.219-.265.594-.281 1.219-.86z"/><text x="344" y="332.15" fill="#D9B8FF" font-family="Helvetica" font-size="17" textLength="235">aws_ecs_container_instance</text><rect width="154" height="39.789" x="96.5" y="206.58" fill="#3D176E" rx="2.5" ry="2.5" style="stroke:#000d19;stroke-width:.5"/><circle cx="111.5" cy="226.475" r="11" fill="#ADD1B2" style="stroke:#181818;stroke-width:1"/><path d="M114.469 232.115q-.578.297-1.219.438-.64.156-1.344.156-2.5 0-3.828-1.64-1.312-1.657-1.312-4.782t1.312-4.781q1.328-1.656 3.828-1.656.703 0 1.344.156.656.156 1.219.453v2.719q-.625-.578-1.219-.844-.594-.281-1.219-.281-1.344 0-2.031 1.078-.687 1.062-.687 3.156t.687 3.172q.688 1.062 2.031 1.062.625 0 1.219-.265.594-.281 1.219-.86z"/><text x="130.5" y="232.36" fill="#D9B8FF" font-family="Helvetica" font-size="17" textLength="112">aws_ecs_task</text><rect width="243" height="39.789" x="52" y="106.79" fill="#3D176E" rx="2.5" ry="2.5" style="stroke:#000d19;stroke-width:.5"/><circle cx="67" cy="126.684" r="11" fill="#ADD1B2" style="stroke:#181818;stroke-width:1"/><path d="M69.969 132.325q-.578.297-1.219.438-.64.156-1.344.156-2.5 0-3.828-1.64-1.312-1.657-1.312-4.782t1.312-4.781q1.328-1.656 3.828-1.656.703 0 1.344.156.656.156 1.219.453v2.719q-.625-.579-1.219-.844-.594-.281-1.219-.281-1.344 0-2.031 1.078-.687 1.062-.687 3.156t.687 3.172q.688 1.062 2.031 1.062.625 0 1.219-.265.594-.281 1.219-.86z"/><text x="86" y="132.57" fill="#D9B8FF" font-family="Helvetica" font-size="17" textLength="201">aws_ecs_task_definition</text><rect width="157" height="39.789" x="7" y="7" fill="#3D176E" rx="2.5" ry="2.5" style="stroke:#000d19;stroke-width:.5"/><circle cx="22" cy="26.895" r="11" fill="#ADD1B2" style="stroke:#181818;stroke-width:1"/><path d="M24.969 32.535q-.578.297-1.219.438-.64.156-1.344.156-2.5 0-3.828-1.64-1.312-1.657-1.312-4.782t1.312-4.781q1.328-1.656 3.828-1.656.703 0 1.344.156.656.156 1.219.453v2.719q-.625-.578-1.219-.844-.594-.281-1.219-.281-1.343 0-2.031 1.078-.687 1.062-.687 3.156t.687 3.172q.688 1.062 2.031 1.062.625 0 1.219-.265.594-.281 1.219-.86z"/><text x="41" y="32.78" fill="#D9B8FF" font-family="Helvetica" font-size="17" textLength="115">aws_iam_role</text><path fill="none" d="M394.9 147.02c-28.67 24.21-79.97 66.48-126.4 99.35-30.65 21.7-62.007 41.146-87.817 56.546" style="stroke:#1a83af;stroke-width:2"/><path fill="#1A83AF" d="m175.53 305.99 9.778-1.177-5.484-1.385 1.385-5.485z" style="stroke:#1a83af;stroke-width:2"/><path fill="none" d="M420.53 146.99c5.93 37.77 18.06 115.133 24 152.963" style="stroke:#1a83af;stroke-width:2"/><path fill="#1A83AF" d="m445.46 305.88 2.555-9.512-3.33 4.572-4.573-3.33z" style="stroke:#1a83af;stroke-width:2"/><path fill="none" d="M369.29 147.01c-42.77 17.14-99.371 39.817-142.111 56.957" style="stroke:#1a83af;stroke-width:2"/><path fill="#1A83AF" d="m221.61 206.2 9.842.363-5.201-2.224 2.224-5.202z" style="stroke:#1a83af;stroke-width:2"/><path fill="none" d="M167.38 246.8c-5.44 17.14-11.528 36.33-16.958 53.47" style="stroke:#1a83af;stroke-width:2"/><path fill="#1A83AF" d="m148.61 305.99 6.531-7.372-5.021 2.606-2.605-5.022z" style="stroke:#1a83af;stroke-width:2"/><path fill="none" d="M227.83 246.8c48.21 17.14 112.617 40.039 160.797 57.179" style="stroke:#1a83af;stroke-width:2"/><path fill="#1A83AF" d="m394.28 305.99-7.139-6.785 2.428 5.11-5.11 2.427z" style="stroke:#1a83af;stroke-width:2"/><path fill="none" d="M173.5 147.01v53.19" style="stroke:#1a83af;stroke-width:2"/><path fill="#1A83AF" d="m173.5 206.2 4-9-4 4-4-4z" style="stroke:#1a83af;stroke-width:2"/><path fill="none" d="M66.36 47.08c-21.58 24.05-51.27 66.17-31.86 99.5 16.48 28.3 41.788 44.899 70.218 57.129" style="stroke:#1a83af;stroke-width:2"/><path fill="#1A83AF" d="m110.23 206.08-6.687-7.23 2.094 5.254-5.255 2.094z" style="stroke:#1a83af;stroke-width:2"/><path fill="none" d="M102.89 47.22c15.42 17.14 33.826 37.6 49.246 54.73" style="stroke:#1a83af;stroke-width:2"/><path fill="#1A83AF" d="m156.15 106.41-3.048-9.365-.297 5.649-5.65-.297z" style="stroke:#1a83af;stroke-width:2"/></svg>
